X:113
T:Cassino THO4.113, The
M:6/8
L:1/8
Z:vmp. Peter Dunk 2010/11.from a transcription by Fynn Titford-Mock 2007
B:Thompson's Compleat Collection of 200 Favourite Country Dances Volume IV.
Q:3/8=110
K:Bb
d2 c d2 c|B2 B Bcd|e2 d e2 d|c2 c c2 d|\
e2 e efg|gfe def|fed c2 d|B2 B B3:|
f2 f fdB|g2 g g3|e2 e ecA|f2 f f3|\
B2 Fd2 B|f2 d b2 f|gfe dcB| c2 F F3|
d2 c d2 c|B2 B Bcd|e2 d e2 d|c2 c c2 d|\
e2 e efg|gfe def|fed c2 d|B2 B B3|]
